src/main/resources/icons/UIDesignerIcons/com/intellij/uiDesigner/icons/table.svg

<svg xmlns="http://www.w3.org/2000/svg" width="16" height="16" viewBox="0 0 16 16"><rect id="frame" width="16" height="16" fill="none"/><path fill="#9AA7B0" fill-opacity=".8" fill-rule="evenodd" d="M5 7V5H2v8h3v-2H2v-1h3V8H2V7h3zm1 0h4V5H6v2zm5 0h3V5h-3v2zm3 1h-3v2h3V8zm-4 0H6v2h4V8zm4 3h-3v2h3v-2zm-4 0H6v2h4v-2zm-9 3V2h14v12H1z"/></svg>

<svg xmlns="http://www.w3.org/2000/svg" width="16" height="16" viewBox="0 0 16 16">
  <path fill="#9AA7B0" fill-opacity=".8" fill-rule="evenodd" d="M5,7 L5,5 L2,5 L2,13 L5,13 L5,11 L2,11 L2,10 L5,10 L5,8 L2,8 L2,7 L5,7 Z M6,7 L10,7 L10,5 L6,5 L6,7 Z M11,7 L14,7 L14,5 L11,5 L11,7 Z M14,8 L11,8 L11,10 L14,10 L14,8 Z M10,8 L6,8 L6,10 L10,10 L10,8 Z M14,11 L11,11 L11,13 L14,13 L14,11 Z M10,11 L6,11 L6,13 L10,13 L10,11 Z M1,14 L1,2 L15,2 L15,14 L1,14 Z"/>
</svg>
